src/lib/packages/icons/src/assets/line/message-dots-minus.svg

<svg width="24" height="24" viewBox="0 0 24 24" fill="none" xmlns="http://www.w3.org/2000/svg">
<path d="M21.75 6V9C21.75 9.414 21.414 9.75 21 9.75C20.586 9.75 20.25 9.414 20.25 9V6C20.25 4.423 19.577 3.75 18 3.75H6C4.423 3.75 3.75 4.423 3.75 6V19.189L5.46997 17.469C5.61097 17.328 5.801 17.249 6 17.249H12C12.414 17.249 12.75 17.585 12.75 17.999C12.75 18.413 12.414 18.749 12 18.749H6.31104L3.53101 21.5291C3.38701 21.6731 3.19598 21.749 3.00098 21.749C2.90398 21.749 2.80711 21.73 2.71411 21.692C2.43411 21.576 2.25098 21.302 2.25098 20.999V5.99902C2.25098 3.58102 3.58298 2.24902 6.00098 2.24902H18.001C20.418 2.25002 21.75 3.582 21.75 6ZM21 14.25H16C15.586 14.25 15.25 14.586 15.25 15C15.25 15.414 15.586 15.75 16 15.75H21C21.414 15.75 21.75 15.414 21.75 15C21.75 14.586 21.414 14.25 21 14.25ZM12.01 9.5C11.458 9.5 11.0149 9.948 11.0149 10.5C11.0149 11.052 11.468 11.5 12.02 11.5C12.573 11.5 13.02 11.052 13.02 10.5C13.02 9.948 12.573 9.5 12.02 9.5H12.01ZM16.02 11.5C16.573 11.5 17.02 11.052 17.02 10.5C17.02 9.948 16.573 9.5 16.02 9.5H16.01C15.458 9.5 15.0149 9.948 15.0149 10.5C15.0149 11.052 15.468 11.5 16.02 11.5ZM8.01001 9.5C7.45801 9.5 7.01489 9.948 7.01489 10.5C7.01489 11.052 7.46802 11.5 8.02002 11.5C8.57302 11.5 9.02002 11.052 9.02002 10.5C9.02002 9.948 8.57302 9.5 8.02002 9.5H8.01001Z" fill="currentColor"/>
</svg>

<svg xmlns="http://www.w3.org/2000/svg" width="24" height="24" fill="none"><path fill="currentColor" d="M21.75 6v3a.75.75 0 0 1-1.5 0V6c0-1.577-.673-2.25-2.25-2.25H6c-1.577 0-2.25.673-2.25 2.25v13.189l1.72-1.72a.749.749 0 0 1 .53-.22h6a.75.75 0 0 1 0 1.5H6.311l-2.78 2.78a.748.748 0 0 1-1.28-.53v-15c0-2.418 1.332-3.75 3.75-3.75h12C20.418 2.25 21.75 3.582 21.75 6ZM21 14.25h-5a.75.75 0 0 0 0 1.5h5a.75.75 0 0 0 0-1.5ZM12.01 9.5a.996.996 0 0 0-.995 1c0 .552.453 1 1.005 1a1 1 0 1 0 0-2h-.01Zm4.01 2a1 1 0 1 0 0-2h-.01a.996.996 0 0 0-.995 1c0 .552.453 1 1.005 1Zm-8.01-2a.996.996 0 0 0-.995 1c0 .552.453 1 1.005 1a1 1 0 1 0 0-2h-.01Z"/></svg>
